ufans-frontend-package/public/assets/images/new-settings/bank-account.svg

<?xml version="1.0"?>
<svg xmlns="http://www.w3.org/2000/svg" xmlns:xlink="http://www.w3.org/1999/xlink" xmlns:svgjs="http://svgjs.com/svgjs" version="1.1" width="512" height="512" x="0" y="0" viewBox="0 0 512 512" style="enable-background:new 0 0 512 512" xml:space="preserve" class=""><g><g xmlns="http://www.w3.org/2000/svg"><path d="m467 211c3.979 0 7.794-1.581 10.606-4.394 3.521-3.52 34.394-35.409 34.394-70.606 0-5.639-3.21-10.856-8.27-13.405l-241-121c-4.234-2.126-9.227-2.126-13.461 0l-241 121c-4.957 2.498-8.269 7.674-8.269 13.405 0 35.19 30.859 67.072 34.391 70.604 2.892 2.894 6.85 4.396 10.609 4.396h15v211h-15c-3.979 0-7.794 1.581-10.606 4.394-3.521 3.519-34.394 35.409-34.394 70.606 0 8.284 6.716 15 15 15h482c8.284 0 15-6.716 15-15 0-35.197-30.873-67.086-34.394-70.606-2.812-2.814-6.627-4.394-10.606-4.394h-15v-211zm-211-179.215 177.693 89.215h-355.386zm204.408 420.215c5.89 6.872 14.142 18.204 18.543 30h-445.903c4.404-11.801 12.661-23.139 18.543-30zm-370.408-30v-211h30v211zm60 0v-211h61v211zm91 0v-211h30v211zm60 0v-211h61v211zm91 0v-211h30v211zm-340.407-241c-5.89-6.871-14.14-18.204-18.542-30.01h445.895c-4.404 11.812-12.654 23.149-18.537 30.01z" fill="#6661e7" data-original="#000000" class=""/></g></g></svg>

<svg xmlns="http://www.w3.org/2000/svg" width="512" height="511.995" viewBox="0 0 512 511.995">
  <g id="bank-account" transform="translate(0 -0.005)">
    <g id="Group_3" data-name="Group 3">
      <path id="Path_6" data-name="Path 6" d="M467,211a15,15,0,0,0,10.605-4.393C481.127,203.086,512,171.2,512,136a15.06,15.06,0,0,0-8.27-13.4l-241-121a15,15,0,0,0-13.461,0l-241,121A15.085,15.085,0,0,0,0,136c0,35.19,30.859,67.072,34.391,70.6A15.184,15.184,0,0,0,45,211H60V422H45a15,15,0,0,0-10.605,4.393C30.873,429.913,0,461.8,0,497a15,15,0,0,0,15,15H497a15,15,0,0,0,15-15c0-35.2-30.873-67.086-34.394-70.606A14.992,14.992,0,0,0,467,422H452V211ZM256,31.785,433.693,121H78.307ZM460.408,452c5.89,6.872,14.142,18.2,18.543,30H33.048c4.4-11.8,12.661-23.139,18.543-30ZM90,422V211h30V422Zm60,0V211h61V422Zm91,0V211h30V422Zm60,0V211h61V422Zm91,0V211h30V422ZM51.593,181c-5.89-6.871-14.14-18.2-18.542-30.01h445.9c-4.4,11.812-12.654,23.149-18.537,30.01Z" fill="#e44499"/>
    </g>
  </g>
</svg>
